X:1
T:Lord Rendal
M:3/4
L:1/4
K:G
 G A B| c B c| A G F| G3| G A B| c B c| A B c| d3| B d B| G/2G/2 B G/2G/2|\
 B c d| g2 d/2d/2| d c B| e2f/2-g/2| B c A| G2||
